lib/brands/icons/google-play-music.svg

<svg xmlns="http://www.w3.org/2000/svg" fill="none" aria-hidden="true" viewBox="0 0 48 48"><g id="google_play_music-Icon"><path id="vector" fill="#F1471D" d="M41.7212 21.6394L8.77277 3.54394C7.36511 2.77972 6.1056 2.8513 5.33979 3.56757C4.79664 4.06903 4.5 4.88085 4.5 5.93138V42.0506C4.5 43.1017 4.82102 43.9136 5.33979 44.4145C6.13014 45.1547 7.36511 45.2262 8.77277 44.4381L41.7212 26.3424C44.0929 25.0534 44.0929 22.9527 41.7212 21.6394Z"/><path id="vector_2" fill="#FCD117" d="M38.9041 27.9319C39.2998 26.6191 39.4976 25.2102 39.4976 23.7783C39.4976 15.3509 32.4083 8.49951 23.6897 8.49951C14.9709 8.49951 7.88232 15.3509 7.88232 23.7783C7.88232 30.8445 12.8471 36.789 19.59 38.532L38.9041 27.9319Z"/><path id="vector_3" fill="#F48B15" d="M33.8792 24.0032C33.8792 29.2769 29.4566 33.5523 23.9997 33.5523C18.5431 33.5523 14.1201 29.2769 14.1201 24.0032C14.1201 18.729 18.5431 14.454 23.9997 14.454C29.4564 14.4538 33.8792 18.7289 33.8792 24.0032Z"/><path id="vector_4" fill="white" d="M23.9999 18.99V24.8619C23.654 24.6718 23.259 24.552 22.8391 24.552C21.5548 24.552 20.542 25.5553 20.542 26.7719C20.542 28.014 21.5792 28.9926 22.8391 28.9926C24.1238 28.9926 25.235 27.9895 25.235 26.7719V21.3772H27.4577V18.99H23.9999Z"/></g></svg>

<svg xmlns="http://www.w3.org/2000/svg" fill="none" aria-hidden="true" viewBox="0 0 48 48"><path fill="#F1471D" d="M41.721 21.64 8.773 3.543c-1.408-.764-2.667-.693-3.433.024-.543.501-.84 1.313-.84 2.363v36.12c0 1.05.321 1.863.84 2.363.79.74 2.025.812 3.433.024L41.72 26.342c2.372-1.289 2.372-3.39 0-4.703Z"/><path fill="#FCD117" d="M38.904 27.932a14.43 14.43 0 0 0 .594-4.154c0-8.427-7.09-15.278-15.808-15.278-8.72 0-15.808 6.85-15.808 15.278 0 7.067 4.965 13.011 11.708 14.754l19.314-10.6Z"/><path fill="#F48B15" d="M33.88 24.003c0 5.274-4.423 9.55-9.88 9.55-5.457 0-9.88-4.276-9.88-9.55 0-5.274 4.423-9.549 9.88-9.549 5.456 0 9.88 4.275 9.88 9.55Z"/><path fill="#fff" d="M24 18.99v5.872a2.41 2.41 0 0 0-1.16-.31c-1.285 0-2.298 1.003-2.298 2.22 0 1.242 1.037 2.22 2.297 2.22 1.285 0 2.396-1.003 2.396-2.22v-5.395h2.223V18.99H24Z"/></svg>
